X: 10653
Q: "Not too fast."
M: C
L: 1/8
K: G
(d>c) |\
(cB)(AG) G2D2 | E2A>B A2(d>c) |\
(cB)(AG) d2G2 | (c>d)(ed) (cB)(AG) |\
(c>d).e.c (B>c).d.B | ({d}cB)(AG) A3G |\
|: (d>c) |\
(cB)(AG) d2D2 | E2(A>B) A2 (d>c) |\
{c}B2AG d2G2 | e2G2 d2G2 |\
(c>d).e.c (B>c).d.B | ({d}c>B)({B}A>G) A2(Bd) |\
(e>f)gB (dB){B}.A.G | {F}E2G>A G2 :|


